frontend/public/svg/interface/menu.svg

<svg width="117" height="83" viewBox="0 0 117 83" fill="none" xmlns="http://www.w3.org/2000/svg">
<g clip-path="url(#clip0)">
<path d="M0.864068 77.0341C0.571799 78.923 2.12079 81.0778 4.24573 81.7405C5.35826 82.0874 6.51143 82.2871 7.67579 82.3345C8.64785 82.3701 9.61992 82.4129 10.592 82.457C12.8673 82.5575 15.1971 82.6613 17.5262 82.6613C18.462 82.6613 19.3976 82.6444 20.3282 82.6036C24.8587 82.409 29.4586 82.1185 33.9068 81.8378C39.235 81.5025 44.7439 81.1562 50.1635 80.9682C64.2728 80.4799 78.4358 78.5379 92.1329 76.66L93.9098 76.4162C97.1208 75.9772 100.441 75.522 103.679 74.8794C103.822 74.8515 103.97 74.8262 104.12 74.8009C105.421 74.5791 107.386 74.2452 107.892 71.2566C107.919 71.0944 107.886 70.9284 107.799 70.7897C107.711 70.6509 107.576 70.5491 107.418 70.5044C107.077 70.4071 106.762 70.3001 106.464 70.1983C105.852 69.9577 105.21 69.8008 104.556 69.7327L102.492 69.6108C97.73 69.3294 92.8062 69.0389 87.9536 68.9092C74.2028 68.5331 60.4414 68.891 46.7284 69.9811C37.8942 70.6944 28.8994 71.2779 20.2 71.8427C15.7933 72.1287 11.3864 72.4205 6.97967 72.7181C6.03861 72.7596 5.10674 72.9204 4.20618 73.1967C3.3401 73.4483 2.56472 73.9437 1.9722 74.6245C1.37968 75.3047 0.994867 76.1412 0.864068 77.0341Z" fill="black"/>
<path d="M3.22255 43.1126C3.20108 43.8194 3.38029 44.5179 3.73928 45.1271C4.09827 45.7363 4.62228 46.2312 5.25086 46.5545C6.31856 47.0793 7.47899 47.3888 8.66608 47.4655C10.2402 47.5621 11.892 47.6451 13.5691 47.6451C14.3895 47.6451 15.2154 47.625 16.041 47.5771C20.9662 47.2943 25.9651 46.9598 30.8021 46.6369C39.8572 46.0325 49.2203 45.4049 58.4348 45.0891C70.9781 44.6572 83.5891 43.1159 95.7846 41.6251C98.9821 41.236 102.177 40.8518 105.37 40.4728C105.625 40.4436 105.882 40.4197 106.144 40.3957C108.013 40.2238 110.34 40.0099 112.715 37.4647C112.789 37.3858 112.842 37.2902 112.87 37.1862C112.899 37.0823 112.902 36.9732 112.879 36.8679C112.856 36.7626 112.807 36.6644 112.738 36.5818C112.669 36.4992 112.581 36.4346 112.481 36.3935C108.143 34.6077 104.391 34.3631 100.611 34.2535L97.3114 34.1582C86.8623 33.8541 76.0594 33.5396 65.3902 33.9501C47.4562 34.6413 29.8936 36.3877 10.44 38.4303C8.61126 38.63 6.82885 39.1354 5.16732 39.9255C4.57565 40.219 4.07899 40.674 3.73485 41.2381C3.39071 41.802 3.21316 42.4519 3.22255 43.1126Z" fill="black"/>
<path d="M6.91381 9.30705C8.17858 9.92436 9.5466 10.3015 10.9489 10.4192C11.7179 10.4762 12.4874 10.5351 13.2572 10.5956C16.8105 10.8705 20.4753 11.1544 24.1056 11.1544C24.3862 11.1544 24.6674 11.1545 24.948 11.1493C31.8108 11.0631 38.7858 10.9028 45.5314 10.7479C54.4809 10.543 63.7355 10.3309 72.8353 10.2887C85.861 10.2284 98.9463 8.7383 111.602 7.29747L112.008 7.25156C112.805 7.0986 113.568 6.79844 114.256 6.36646C114.716 6.12265 115.239 5.84767 115.88 5.55069C115.995 5.49796 116.092 5.41372 116.161 5.30784C116.23 5.20196 116.267 5.07879 116.268 4.95259C116.27 4.82639 116.236 4.70237 116.169 4.59497C116.103 4.48757 116.007 4.4011 115.894 4.34579C115.233 4.02157 114.677 3.71035 114.186 3.43282C113.417 2.91444 112.552 2.55407 111.642 2.37262L109.155 2.07309C104.324 1.4895 99.3293 0.883162 94.3867 0.676958C67.7566 -0.435762 40.7162 0.608936 14.5669 1.61985L9.874 1.8008C9.16426 1.82876 8.45918 1.92888 7.76973 2.09969C6.98105 2.24831 6.26047 2.6449 5.71265 3.23176C5.16483 3.81863 4.81826 4.56515 4.72381 5.36261C4.6023 6.16975 4.75139 6.99446 5.14751 7.708C5.54363 8.42154 6.16476 8.9838 6.91381 9.30705Z" fill="black"/>
</g>
<defs>
<clipPath id="clip0">
<rect width="116" height="83" fill="white" transform="translate(0.777344)"/>
</clipPath>
</defs>
</svg>

<svg xmlns="http://www.w3.org/2000/svg" width="117" height="83" fill="none" viewBox="0 0 117 83"><g fill="#000" clip-path="url(#a)"><path d="M.864 77.034c-.292 1.889 1.257 4.044 3.382 4.706a13.4 13.4 0 0 0 3.43.595q1.458.054 2.916.122c2.275.1 4.605.204 6.934.204q1.406.002 2.802-.057c4.53-.195 9.13-.486 13.579-.766 5.328-.335 10.837-.682 16.257-.87 14.109-.488 28.272-2.43 41.969-4.308l1.777-.244c3.21-.439 6.531-.894 9.769-1.537q.215-.041.441-.078c1.301-.222 3.266-.556 3.772-3.544a.666.666 0 0 0-.474-.752 19 19 0 0 1-.954-.307 7.3 7.3 0 0 0-1.908-.465l-2.064-.122c-4.762-.282-9.686-.572-14.538-.702a387 387 0 0 0-41.226 1.072c-8.834.713-17.829 1.297-26.528 1.862q-6.61.43-13.22.875c-.941.042-1.873.202-2.774.479a4.71 4.71 0 0 0-3.342 3.837m2.359-33.921a3.74 3.74 0 0 0 2.028 3.441 9.1 9.1 0 0 0 3.415.911c1.574.097 3.226.18 4.903.18q1.232.002 2.472-.068c4.925-.283 9.924-.617 14.761-.94 9.055-.605 18.418-1.232 27.633-1.548 12.543-.432 25.154-1.973 37.35-3.464q4.795-.584 9.585-1.152c.255-.03.512-.053.774-.077 1.869-.172 4.196-.386 6.571-2.931a.66.66 0 0 0 .155-.279.66.66 0 0 0-.132-.604.66.66 0 0 0-.257-.188c-4.338-1.786-8.09-2.03-11.87-2.14l-3.3-.096c-10.449-.304-21.252-.618-31.92-.208-17.935.691-35.497 2.438-54.951 4.48-1.829.2-3.611.705-5.273 1.495a3.5 3.5 0 0 0-1.944 3.188M6.914 9.307a11.4 11.4 0 0 0 4.035 1.112q1.153.085 2.308.177c3.554.274 7.218.558 10.849.558q.42.001.842-.005c6.863-.086 13.838-.246 20.583-.401 8.95-.205 18.205-.417 27.304-.46 13.026-.06 26.111-1.55 38.767-2.99l.406-.046a6.6 6.6 0 0 0 2.248-.886c.46-.243.983-.518 1.624-.815a.667.667 0 0 0 .014-1.205 32 32 0 0 1-1.708-.913 7 7 0 0 0-2.544-1.06l-2.487-.3C104.324 1.49 99.329.883 94.387.677c-26.63-1.113-53.67-.068-79.82.943l-4.693.18c-.71.029-1.415.129-2.104.3a3.77 3.77 0 0 0-3.046 3.263 3.7 3.7 0 0 0 2.19 3.944"/></g><defs><clipPath id="a"><path fill="#fff" d="M.777 0h116v83h-116z"/></clipPath></defs></svg>
